!! Webern, Anton
!! Variation for Piano, Op. 27
!! Third Movement
!! "Ruhig flieBend"
!! encoded by Wendy Czajkowsky, 6/2/95
**kern	**kern
*MM160	*MM160
*clefF4	*clefG2
*M3/2	*M3/2
*k[]	*k[]
*X:	*X:
=1	=1
2r	4r
.	1ee-~
2r	.
*clefG2	*
(4B	.
4b-)	4r
=2	=2
2r	1d~
2r	.
4r	2r
*clefF4	*
4CC#'	.
=3	=3
2r	4c'
.	(2.f#
2e~	.
2r	2G)
*clefG2	*
=4	=4
2r	2r
4r	2r
2.fff^	.
.	4r
.	(4A
=5	=5
2r	4g#)
.	4r
4r	2r
[2.e-	.
.	2r
=6	=6
4e-]	(4Gn
4r	4g#)
1een~	2r
.	2r
*clefF4	*
=7	=7
2r	4r
.	4fff'
4FF#'	2r
(2.C	.
.	2d~
=8	=8
2B)	2r
2r	2r
2r	4r
.	[4cc#
=9	=9
4r	2cc#]
*clefG2	*
(4A	.
4b-)	2r
4r	.
2r	(4g#
.	4A)
=10	=10
2.fff	4r
.	(2.gn
2e~	.
.	2ff#)
4r	.
=11	=11
(4cc	4r
*	*clefF4
4c#)	1D~
4r	.
(4b-	.
4Bn)	.
4r	4r
*	*clefG2
=12	=12
2r	4ee-'
.	4r
4r	2r
4eeen'	.
4r	4cn' 4bn'
4ee-'	4r
=13	=13
2r	4d' 4cc#'
.	4r
4gg~	4r
4r	4f
4A-	4r
4r	4ff#
=14	=14
4B- 4an	2r
4r	.
2r	4r
*	*clefF4
.	4CC#'
4r	4r
*clefF4	*
4Cn' 4Bn'	4d'
*clefG2	*
=15	=15
2ff#~	2r
*	*clefG2
2r	2fn
(eq	.
4G# 4gn)	4r
4r	4eee-'
=16	=16
4r	2r
4Bn' 4b-'	.
*	*clefF4
4r	4D'
4c#' 4ccn'	4r
2r	4r
*	*clefG2
.	4fff#'
=17	=17
4r	4r
*clefF4	*
4Fn' 4e'	4g'
*clefG2	*
2aa~	2r
2r	2g#
=18	=18
(g#q	.
4Gn 4b-)	4r
4r	4dd'
4r	4r
4c#' 4ccn'	4ee-'
4r	4gn'
4f#' 4ffn'	4aa'
=19	=19
2r	4r
.	2ggg#
4r	.
4fn' 4ff#'	4r
2r	4ggg#'
.	4r
=20	=20
4gn' 4ff#'	4aa'
4r	4cc#'
4ccn' 4bb'	4eee-'
4r	4r
4r	4ddd
4Bn 4b-	4r
=21	=21
4r	4ddd'
4c#' 4cn'	4ee-'
4r	4g'
4f#' 4ff#'	4aa'
2r	4r
*	*clefF4
.	4A-
*clefF4	*clefG2
=22	=22
4EEn 4E-	4r
4r	4gg~
*clefG2	*
4f	4r
4r	4A-
4ff#	4r
4r	4c 4b
=23	=23
4bb-	4r
4r	4d 4cc#
4r	2r
4aan'	.
4aan'	4r
*	*clefF4
4r	4G#'
=24	=24
4r	4G#'
(4c	4r
*	*clefG2
4cc#)	2.Bn 2.f 2.b-
4r	.
(4eee	.
4ee-)	4r
=25	=25
4r	2r
4gg'^	.
2r	4r
.	4f#'^
4r	2r
*clefF4	*
4D'^	.
=26	=26
2r	4r
.	4ee-'
(4BB	4r
4B-)	2.c# 2.f# 2.ccn
4r	.
*clefG2	*
4gg'	.
=27	=27
4r	2r
4G#'	.
2r	4eee'
.	4eee'
4f'	2r
4f'	.
=28	=28
2r	4r
.	4A'^
2r	4r
.	4b-'^
4ff#'^	4r
*clefF4	*
4FFn'	[4A- [4d- [4g
=29	=29
4r	2A-] 2d-] 2g]
4Dn'	.
4r	2r
*clefG2	*
4ee-'	.
2r	4r
.	4bbn'
=30	=30
4r	2r
4c'	.
4r	2r
4eeen'	.
4eeen'	4r
4r	4e-'
=31	=31
4r	4e-'
4G'	4r
4r	4r
4g#'	2.F# 2.c 2.fn
4r	.
(4bb	.
=32	=32
4b-)	2r
4r	.
4r	4d'^
4cc#'^	4r
2r	(4A
.	4b-)
=33	=33
4ff#'^	4r
*clefF4	*
4FFn'	2.A- 2.d- 2.g
4D'	.
*clefG2	*
4ee-'	.
2r	4r
.	(8bn
.	8c)
=34	=34
4r	2r
(8een	.
8f)	.
2r	4r
.	2.cc#
*clefF4	*
2E-~ 2An~ 2dn~	.
=35	=35
2r	4r
.	2b~
4r	.
*clefG2	*
(8aa-	4r
8b-)	.
2r	4r
.	(8f#
.	8G)
=36	=36
2r	(8G
.	8f#)
.	4r
(8b-	4r
8aa-)	.
4r	2bn~
2r	.
.	4r
*clefF4	*
=37	=37
2E-~ 2An~ 2d~	2.cc#
2r	.
.	4r
*clefG2	*
(8fn	2r
8een)	.
=38	=38
2r	(8cn
.	8b)
.	4r
(8b	2r
8d#)	.
4r	.
4r	(8d#
.	8ee)
[4c	4r
*	*clefF4
=39	=39
2c]	2Dn~ 2G#~ 2c#~
4r	2r
2b-~	.
.	4r
*	*clefG2
4r	(8ggn
.	8a)
*clefF4	*
=40	=40
4r	2r
(8F	.
8f#)	.
(8f#	2r
8Fn)	.
4r	.
4r	(8a
.	8gg)
*clefG2	*
[4b-	4r
=41	=41
4b-]	2r
4r	.
*	*clefF4
2.cc	2D~ 2G#~ 2c#~
.	4r
*	*clefG2
4r	(8ee
.	8d#)
=42	=42
4r	2r
(8d#	.
8bn)	.
2r	4r
.	(bb-q
.	2.ddn)
*clefF4	*
2C#~ 2F#~ 2cn~	.
=43	=43
2r	4r
.	2ee~
4r	.
(8G	4r
8fn)	.
2r	4r
.	(8aa
.	8g#)
=44	=44
1r	1r
=45	=45
8r	2r
4C~	.
8r	.
4r	4B-~
8r	4r
4c#~	.
.	4r
8r	.
4r	4bn~
*clefG2	*
=46	=46
4ff'	4r
*	*clefF4
4r	(4e
4r	4E-)
*clefF4	*
4GG'	4r
2r	4r
.	8r
*	*clefG2
.	8fff#'^
=47	=47
8r	4r
4d~	.
.	8r
*	*clefF4
8r	4C#~
8r	.
*clefG2	*
4ffn~	8r
.	8r
*	*clefG2
8r	4en~
8r	.
*clefF4	*
4E-~	8r
.	8r
8r	8a~
*clefG2	*
=48	=48
4r	2r
8r	.
8ggg'	.
4r	8r
.	4b-~ 4aa-~
8r	.
*clefF4	*
4Cn~ 4Bn~	8r
.	8r
8r	4e-~ 4dd-~
8r	.
[4En [4dn	8r
=49	=49
4En] 4dn]	8r
*	*clefF4
8r	8GG#'^
8r	4r
*clefG2	*
4gggn~	.
.	4r
8r	.
*	*clefG2
4r	4f#~
8r	2r
4B-~	.
8r	.
=50	=50
4r	4a~
4ffn'	4r
2r	(4e
.	4G#)
*clefF4	*
4GGn'	2r
4r	.
=51	=51
8r	4r
*clefG2	*
8fff#'^	.
4r	8r
*	*clefF4
.	4C~
8r	.
4B-~	8r
.	8r
8r	4c#~
8r	.
4bn~	8r
.	8r
*	*clefG2
8r	8ee-'^
=52	=52
2r	8r
.	8ddd'^
.	4r
8r	4r
8fff#'^	.
8r	8r
8gg'^	8een'^
8r	8r
8B'^	8fn'^
8r	4r
8b-'^	.
=53	=53
2r	4r
.	8r
.	8aaa'^
8r	4r
4cc#~ 4cccn~	.
.	8r
8r	4a-~ 4gg~
8r	.
4Bn~ 4b-~	8r
.	4r
8r	.
=54	=54
2r	4r
.	8aaan'^
.	8r
4d#~ 4cc#~	4r
*	*clefF4
4r	4E~ 4dn~
4f#~ 4ffn~	4r
4r	8r
*	*clefG2
.	8aaa'^
=55	=55
8r	8r
8gg'^	8bb-'^
8r	8r
8a-'^	8d'^
4r	8r
.	8cc#'^
8r	4r
*clefF4	*
8Cn'^	.
4r	8r
.	4e~ 4dd#~
8r	.
8bn'^	8r
=56;	=56;
4r	2r
2.EE-	.
.	4r
.	2.B 2.dn 2.b-
4r	.
*clefG2	*
4cc#' 4ff#' 4cccn'	.
=57	=57
2r	4r
.	2en~
2r	.
.	4r
4r	2r
*clefF4	*
[4GG	.
=58	=58
2GG]	4r
.	2A 2fn (2g#
4r	.
*clefG2	*
4cc#' 4ff#' 4cccn'	4e)
2r	4r
.	[4B [4d [4b-
*clefF4	*
=59	=59
2r	4B] 4d] 4b-]
.	4r
4r	2r
2.EE-	.
.	4r
.	[4en
=60	=60
4r	4en]
*clefG2	*
4A' 4fn' 4g#'	4r
2r	4r
.	2Gn~ 2c#~ 2f#~
2r	.
.	4r
=61	=61
4r	2r
*clefF4	*
(2EE-	.
.	4r
4CCn)'	4B' 4d' 4b-'
4r	2r
[4EE-	.
=62	=62
2EE-]	4r
.	2G~ 2c#~ 2f#~
2r	.
.	4r
4r	2r
*clefG2	*
[4A [4fn [4g#	.
=63	=63
4A] 4fn] (4g#]	4r
*	*clefF4
4en)'	2.GGn~
2r	.
2r	4r
*	*clefG2
.	4cc#' 4ff#' 4cccn'
=64	=64
4r	2r
2.B 2.d 2.b-	.
.	4r
*	*clefF4
.	2.EE-
2r	.
=65	=65
4r	2r
2G#~ 2en~ 2g~	.
.	4r
4r	4dd#' 4aa' 4dddn'
2r	2r
=66	=66
4r	2r
*clefF4	*
(2DD	.
.	4r
*	*clefG2
4BBB)'	4B-' 4d-' 4a'
2r	2r
==	==
*-	*-
